**kern	**kern	**dynam
*part1	*part1	*part1
*staff2	*staff1	*
*I"Piano	*	*
*clefF4	*clefG2	*
*k[f#]	*k[f#]	*
=1	=1	=1
2AA#X 2E 2G#X 2c#X	2e 2g#X	mp
=	=	=
4AA#X 4E 4Gn 4c#X	4e 4gn	.
*	*^	*
4AAn 4E	4c#X 4g	8r	.
!	!LO:TX:b:i:t=espr.	!	!
.	.	[8e	.
=	=	=	=
*^	*	*	*
4C#X	2BB-X	2G	8e]	.
.	.	.	4d#X	.
8D#X	.	.	.	.
8E 8B-X	.	.	8c#X	.
*	*	*v	*v	*
=	=	=	=
!	!	!LO:TX:a:t=nicht langsamer werden!	!
(8AnL	4C#X	2r	>
16GJk)	.	.	.
16r	.	.	.
[4BB-X [4C#X	8AA~L	.	.
.	8GGJ	.	.
=	=	=	=
2BB-_ 2C#_	2FF#	2r	.
=	=	=	=
2BB-] 2C#]	2EE	2r	.
*v	*v	*	*
=||	=||	=||
*M3/4	*M3/4	*
*	*^	*
8DD` 8FF# 8D	16b`	4B 4f#	]
.	16r	.	.
8r	(8bL	.	mf
4EE 4BB 4E	8cc#X	4g 4b	.
.	8ggJ	.	.
4AA 4BB 4D#X 4A	8ggL	4b	.
.	8ff#J	.	.
*	*v	*v	*
=	=	=
*-	*-	*-
!!!system-decoration: {(s1,s2)}
